Dominus_Dark_Funeral/scalable/apps/gnome-sound-recorder.svg

<svg xmlns="http://www.w3.org/2000/svg" xmlns:xlink="http://www.w3.org/1999/xlink" width="48" height="48" viewBox="0 0 12.7 12.7"><defs><linearGradient id="j"><stop offset="0" stop-color="#dbe2e3"/><stop offset=".49" stop-color="#93a7ac"/><stop offset="1" stop-color="#53676c"/></linearGradient><linearGradient id="i"><stop offset="0" stop-opacity="0"/><stop offset="1"/></linearGradient><linearGradient id="h"><stop offset="0" stop-color="#0a0000" stop-opacity="0"/><stop offset="1"/></linearGradient><linearGradient id="a"><stop offset="0"/><stop offset="1" stop-opacity="0"/></linearGradient><radialGradient cx="22.68" cy="15.93" r="17.41" fx="22.68" fy="15.93" id="m" xlink:href="#b" gradientUnits="userSpaceOnUse" gradientTransform="matrix(-.10228 .2447 -.09218 -.04246 15.5 283.89)"/><linearGradient id="b"><stop offset="0" stop-color="#3c3c3c"/><stop offset="1" stop-color="#1e1e1e"/></linearGradient><linearGradient x1="17.68" y1="28.65" x2="14.22" y2="25.91" id="n" xlink:href="#c" gradientUnits="userSpaceOnUse" gradientTransform="matrix(.17568 0 0 .18009 7.4 285.81)"/><linearGradient id="c"><stop offset="0" stop-color="#fff" stop-opacity=".75"/><stop offset="1" stop-color="#fff" stop-opacity="0"/></linearGradient><radialGradient cx="37.97" cy="11.22" r="10.02" fx="37.97" fy="11.22" id="o" xlink:href="#d" gradientUnits="userSpaceOnUse" gradientTransform="matrix(.17709 .00337 -.00319 .18153 7.53 284.82)"/><linearGradient id="d"><stop offset="0" stop-color="#fff"/><stop offset="1" stop-color="#707070"/></linearGradient><radialGradient cx="31" cy="20.94" r=".91" fx="31" fy="20.94" id="p" xlink:href="#e" gradientUnits="userSpaceOnUse" gradientTransform="matrix(2.94114 .05605 -.05382 3.0629 -75.32 221.13)"/><linearGradient id="e"><stop offset="0" stop-color="#fff" stop-opacity="0"/><stop offset=".77" stop-opacity=".5"/><stop offset="1"/></linearGradient><linearGradient x1="32.3" y1="18.65" x2="34.59" y2="16.08" id="q" xlink:href="#f" gradientUnits="userSpaceOnUse" gradientTransform="matrix(.16015 .00305 -.00288 .16416 8.19 285.03)"/><linearGradient id="f"><stop offset="0" stop-color="#1e1e1e"/><stop offset=".27" stop-color="#8d8d8d"/><stop offset="1" stop-color="#eee"/></linearGradient><linearGradient x1="34.2" y1="17.33" x2="39" y2="23.12" id="r" xlink:href="#g" gradientUnits="userSpaceOnUse" gradientTransform="matrix(.16015 .00305 -.00288 .16416 8.19 285.03)" spreadMethod="reflect"/><linearGradient id="g"><stop offset="0" stop-color="#fff"/><stop offset="1" stop-color="#fff" stop-opacity="0"/></linearGradient><linearGradient x1="26.55" y1="25.6" x2="28.42" y2="23.38" id="s" xlink:href="#f" gradientUnits="userSpaceOnUse" gradientTransform="matrix(.17568 0 0 .18009 7.76 284.67)"/><linearGradient xlink:href="#i" id="l" gradientUnits="userSpaceOnUse" gradientTransform="matrix(-1 0 0 1 18.8 0)" x1="6.16" y1="296.25" x2="16.2" y2="286.59"/><radialGradient xlink:href="#j" id="k" cx="6.83" cy="293.18" fx="6.83" fy="293.18" r="5.35" gradientTransform="matrix(1.33566 -1.03695 1.29826 1.67225 -382.92 -189.58)" gradientUnits="userSpaceOnUse"/></defs><path d="M6.35 284.4c-1.54 0-2.78.29-3.69.87A3.67 3.67 0 0 0 1 288.52c0 1.91 1.54 4.47 2.01 5.2.54.85 1.13 1.61 1.65 2.16.68.7 1.21 1.03 1.7 1.03.47 0 1-.33 1.68-1.03.52-.55 1.11-1.31 1.65-2.15.47-.74 2-3.3 2-5.21 0-1.42-.57-2.54-1.65-3.25a6.75 6.75 0 0 0-3.69-.88z" fill="url(#k)" transform="translate(0 -284.3)"/><path d="M7.2 296.59c.26-.17.53-.39.84-.7.52-.56 1.11-1.32 1.65-2.16.23-.37.74-1.2 1.18-2.17.22-.48.43-1 .58-1.52.1-.33.11-.63.15-.94l-2.22-2.25-5.75 6.1z" fill="url(#l)" transform="translate(0 -284.3)"/><path d="M1.04 3.9c0 .1-.04.2-.04.32 0 1.91 1.54 4.47 2.01 5.2.54.85 1.13 1.61 1.65 2.16.68.7 1.21 1.03 1.69 1.03s1.01-.33 1.69-1.03c.52-.55 1.11-1.31 1.65-2.15.47-.74 2-3.3 2-5.21 0-.11-.02-.21-.03-.32-.02.42-.08.86-.21 1.3-.15.53-.36 1.05-.58 1.53-.44.97-.95 1.8-1.18 2.17-.54.84-1.13 1.6-1.65 2.15-.34.35-.64.61-.92.78-.28.17-.53.25-.77.25s-.5-.08-.77-.25a4.76 4.76 0 0 1-.92-.78A14.41 14.41 0 0 1 3.01 8.9c-.23-.37-.74-1.2-1.18-2.17-.22-.48-.43-1-.58-1.52-.13-.45-.19-.89-.21-1.31z" opacity=".5"/><path d="M6.35 2.53a2.76 2.76 0 0 1 2.76 2.76 2.76 2.76 0 0 1-2.76 2.76A2.76 2.76 0 0 1 3.59 5.3a2.76 2.76 0 0 1 2.76-2.76z" fill="#c83737"/><path d="M9.11 5.31a2.76 2.76 0 0 0 0-.02 2.76 2.76 0 0 0 0-.2 2.76 2.76 0 0 0-.04-.27 2.76 2.76 0 0 0-.06-.27 2.76 2.76 0 0 0-.09-.26 2.76 2.76 0 0 0-.1-.25 2.76 2.76 0 0 0-.15-.24 2.76 2.76 0 0 0-.16-.22 2.76 2.76 0 0 0-.18-.21 2.76 2.76 0 0 0-.2-.19 2.76 2.76 0 0 0-.22-.17 2.76 2.76 0 0 0-.24-.14 2.76 2.76 0 0 0-.24-.12 2.76 2.76 0 0 0-.26-.1 2.76 2.76 0 0 0-.25-.06c0 .02-.03.04-.02.06a1.7 1.77 0 0 0-.39 1.1 1.7 1.77 0 0 0 0 .1c-.02.04-.16.23-.2.35l-2.2 2.7a2.76 2.76 0 0 0 .08.1 2.76 2.76 0 0 0 .18.22 2.76 2.76 0 0 0 .2.18 2.76 2.76 0 0 0 .22.17 2.76 2.76 0 0 0 .24.14 2.76 2.76 0 0 0 .24.12 2.76 2.76 0 0 0 .26.1 2.76 2.76 0 0 0 .12.03L8 5.76c.15-.04.43-.21.43-.21l-.01-.01a1.73 1.77-.67 0 0 .68-.23z" fill="#280b0b" fill-rule="evenodd" opacity=".25"/><path d="M11.77 288.45l-3.15 3.88c.16.92 1.07.96 1.07.96l3.68-3.41z" fill="url(#m)" fill-rule="evenodd" transform="translate(-5.3 -284.3)"/><path d="M12.07 289.06a70.05 70.05 0 0 1-3.23 3.68s-.19-.19-.2-.4l3.05-3.75s.1.22.38.47z" opacity=".24" fill="url(#n)" fill-rule="evenodd" transform="translate(-5.3 -284.3)"/><path d="M15.17 288.1a1.65 1.6 89.33 1 1-3.2-.07 1.65 1.6 89.33 1 1 3.2.06z" fill="url(#o)" transform="translate(-5.3 -284.3)"/><path d="M15.1 288.09a1.58 1.64 0 1 1-3.15-.06 1.58 1.64 0 1 1 3.15.06z" opacity=".19" fill="url(#p)" transform="translate(-5.3 -284.3)"/><path d="M12.54 286.76s.64.88 2.37 2.21c.07.06-.13.28-.2.22 0 0-1.08-.54-2.39-2.17-.07-.08.05-.14.22-.26z" fill="url(#q)" fill-rule="evenodd" transform="translate(-5.3 -284.3)"/><path d="M12.54 286.76s.64.88 2.37 2.21c.07.06-.13.28-.2.22 0 0-1.08-.54-2.39-2.17-.07-.08.05-.14.22-.26z" opacity=".67" fill="url(#r)" fill-rule="evenodd" transform="translate(-5.3 -284.3)"/><path d="M13.31 289.91c.13-.01.43-.2.43-.2-.43-.23-1.77-1.6-1.77-1.6s-.23.3-.2.4c0 0 .76.93 1.54 1.4z" fill="url(#s)" fill-rule="evenodd" transform="translate(-5.3 -284.3)"/></svg>

<?xml version="1.0" encoding="UTF-8" standalone="no"?>
<svg
   xmlns:dc="http://purl.org/dc/elements/1.1/"
   xmlns:cc="http://creativecommons.org/ns#"
   xmlns:rdf="http://www.w3.org/1999/02/22-rdf-syntax-ns#"
   xmlns:svg="http://www.w3.org/2000/svg"
   xmlns="http://www.w3.org/2000/svg"
   xmlns:xlink="http://www.w3.org/1999/xlink"
   xmlns:sodipodi="http://sodipodi.sourceforge.net/DTD/sodipodi-0.dtd"
   xmlns:inkscape="http://www.inkscape.org/namespaces/inkscape"
   width="48"
   height="48"
   viewBox="0 0 12.7 12.7"
   version="1.1"
   id="svg93"
   sodipodi:docname="gnome-sound-recorder.svg"
   inkscape:version="0.92.4 (5da689c313, 2019-01-14)">
  <metadata
     id="metadata97">
    <rdf:RDF>
      <cc:Work
         rdf:about="">
        <dc:format>image/svg+xml</dc:format>
        <dc:type
           rdf:resource="http://purl.org/dc/dcmitype/StillImage" />
        <dc:title></dc:title>
      </cc:Work>
    </rdf:RDF>
  </metadata>
  <sodipodi:namedview
     pagecolor="#ffffff"
     bordercolor="#666666"
     borderopacity="1"
     objecttolerance="10"
     gridtolerance="10"
     guidetolerance="10"
     inkscape:pageopacity="0"
     inkscape:pageshadow="2"
     inkscape:window-width="1112"
     inkscape:window-height="480"
     id="namedview95"
     showgrid="false"
     inkscape:zoom="4.9166667"
     inkscape:cx="2.1355932"
     inkscape:cy="24"
     inkscape:window-x="0"
     inkscape:window-y="25"
     inkscape:window-maximized="0"
     inkscape:current-layer="svg93" />
  <defs
     id="defs67">
    <linearGradient
       id="j">
      <stop
         offset="0"
         stop-color="#dbe2e3"
         id="stop2" />
      <stop
         offset=".49"
         stop-color="#93a7ac"
         id="stop4" />
      <stop
         offset="1"
         stop-color="#53676c"
         id="stop6" />
    </linearGradient>
    <linearGradient
       id="i">
      <stop
         offset="0"
         stop-opacity="0"
         id="stop9" />
      <stop
         offset="1"
         id="stop11" />
    </linearGradient>
    <linearGradient
       id="h">
      <stop
         offset="0"
         stop-color="#0a0000"
         stop-opacity="0"
         id="stop14" />
      <stop
         offset="1"
         id="stop16" />
    </linearGradient>
    <linearGradient
       id="a">
      <stop
         offset="0"
         id="stop19" />
      <stop
         offset="1"
         stop-opacity="0"
         id="stop21" />
    </linearGradient>
    <radialGradient
       cx="22.68"
       cy="15.93"
       r="17.41"
       fx="22.68"
       fy="15.93"
       id="m"
       xlink:href="#b"
       gradientUnits="userSpaceOnUse"
       gradientTransform="matrix(-0.10228,0.2447,-0.09218,-0.04246,10.2,-0.41)" />
    <linearGradient
       id="b">
      <stop
         offset="0"
         stop-color="#3c3c3c"
         id="stop25" />
      <stop
         offset="1"
         stop-color="#1e1e1e"
         id="stop27" />
    </linearGradient>
    <linearGradient
       x1="17.68"
       y1="28.65"
       x2="14.22"
       y2="25.91"
       id="n"
       xlink:href="#c"
       gradientUnits="userSpaceOnUse"
       gradientTransform="matrix(0.17568,0,0,0.18009,2.1,1.51)" />
    <linearGradient
       id="c">
      <stop
         offset="0"
         stop-color="#fff"
         stop-opacity=".75"
         id="stop31" />
      <stop
         offset="1"
         stop-color="#fff"
         stop-opacity="0"
         id="stop33" />
    </linearGradient>
    <radialGradient
       cx="37.97"
       cy="11.22"
       r="10.02"
       fx="37.97"
       fy="11.22"
       id="o"
       xlink:href="#d"
       gradientUnits="userSpaceOnUse"
       gradientTransform="matrix(0.17709,0.00337,-0.00319,0.18153,2.23,0.52)" />
    <linearGradient
       id="d">
      <stop
         offset="0"
         stop-color="#fff"
         id="stop37" />
      <stop
         offset="1"
         stop-color="#707070"
         id="stop39" />
    </linearGradient>
    <radialGradient
       cx="31"
       cy="20.94"
       r=".91"
       fx="31"
       fy="20.94"
       id="p"
       xlink:href="#e"
       gradientUnits="userSpaceOnUse"
       gradientTransform="matrix(2.94114,0.05605,-0.05382,3.0629,-80.62,-63.17)" />
    <linearGradient
       id="e">
      <stop
         offset="0"
         stop-color="#fff"
         stop-opacity="0"
         id="stop43" />
      <stop
         offset=".77"
         stop-opacity=".5"
         id="stop45" />
      <stop
         offset="1"
         id="stop47" />
    </linearGradient>
    <linearGradient
       x1="32.3"
       y1="18.65"
       x2="34.59"
       y2="16.08"
       id="q"
       xlink:href="#f"
       gradientUnits="userSpaceOnUse"
       gradientTransform="matrix(0.16015,0.00305,-0.00288,0.16416,2.89,0.73)" />
    <linearGradient
       id="f">
      <stop
         offset="0"
         stop-color="#1e1e1e"
         id="stop51" />
      <stop
         offset=".27"
         stop-color="#8d8d8d"
         id="stop53" />
      <stop
         offset="1"
         stop-color="#eee"
         id="stop55" />
    </linearGradient>
    <linearGradient
       x1="34.2"
       y1="17.33"
       x2="39"
       y2="23.12"
       id="r"
       xlink:href="#g"
       gradientUnits="userSpaceOnUse"
       gradientTransform="matrix(0.16015,0.00305,-0.00288,0.16416,2.89,0.73)"
       spreadMethod="reflect" />
    <linearGradient
       id="g">
      <stop
         offset="0"
         stop-color="#fff"
         id="stop59" />
      <stop
         offset="1"
         stop-color="#fff"
         stop-opacity="0"
         id="stop61" />
    </linearGradient>
    <linearGradient
       x1="26.55"
       y1="25.6"
       x2="28.42"
       y2="23.38"
       id="s"
       xlink:href="#f"
       gradientUnits="userSpaceOnUse"
       gradientTransform="matrix(0.17568,0,0,0.18009,2.46,0.37)" />
    <linearGradient
       xlink:href="#i"
       id="l"
       gradientUnits="userSpaceOnUse"
       gradientTransform="matrix(-1,0,0,1,18.8,-284.3)"
       x1="6.16"
       y1="296.25"
       x2="16.2"
       y2="286.59" />
    <radialGradient
       xlink:href="#j"
       id="k"
       cx="6.83"
       cy="293.18"
       fx="6.83"
       fy="293.18"
       r="5.35"
       gradientTransform="matrix(1.33566,-1.03695,1.29826,1.67225,-382.92,-473.88)"
       gradientUnits="userSpaceOnUse" />
  </defs>
  <path
     d="M 6.35,0.1 C 4.81,0.1 3.57,0.39 2.66,0.97 A 3.67,3.67 0 0 0 1,4.22 c 0,1.91 1.54,4.47 2.01,5.2 0.54,0.85 1.13,1.61 1.65,2.16 0.68,0.7 1.21,1.03 1.7,1.03 0.47,0 1,-0.33 1.68,-1.03 0.52,-0.55 1.11,-1.31 1.65,-2.15 0.47,-0.74 2,-3.3 2,-5.21 0,-1.42 -0.57,-2.54 -1.65,-3.25 A 6.75,6.75 0 0 0 6.35,0.09 Z"
     id="path69"
     style="fill:url(#k)"
     inkscape:connector-curvature="0" />
  <path
     d="M 7.2,12.29 C 7.46,12.12 7.73,11.9 8.04,11.59 8.56,11.03 9.15,10.27 9.69,9.43 9.92,9.06 10.43,8.23 10.87,7.26 11.09,6.78 11.3,6.26 11.45,5.74 11.55,5.41 11.56,5.11 11.6,4.8 L 9.38,2.55 3.63,8.65 Z"
     id="path71"
     style="fill:url(#l)"
     inkscape:connector-curvature="0" />
  <path
     d="M 1.04,3.9 C 1.04,4 1,4.1 1,4.22 c 0,1.91 1.54,4.47 2.01,5.2 0.54,0.85 1.13,1.61 1.65,2.16 0.68,0.7 1.21,1.03 1.69,1.03 0.48,0 1.01,-0.33 1.69,-1.03 0.52,-0.55 1.11,-1.31 1.65,-2.15 0.47,-0.74 2,-3.3 2,-5.21 C 11.69,4.11 11.67,4.01 11.66,3.9 11.64,4.32 11.58,4.76 11.45,5.2 11.3,5.73 11.09,6.25 10.87,6.73 10.43,7.7 9.92,8.53 9.69,8.9 9.15,9.74 8.56,10.5 8.04,11.05 7.7,11.4 7.4,11.66 7.12,11.83 6.84,12 6.59,12.08 6.35,12.08 6.11,12.08 5.85,12 5.58,11.83 A 4.76,4.76 0 0 1 4.66,11.05 14.41,14.41 0 0 1 3.01,8.9 C 2.78,8.53 2.27,7.7 1.83,6.73 1.61,6.25 1.4,5.73 1.25,5.21 1.12,4.76 1.06,4.32 1.04,3.9 Z"
     id="path73"
     inkscape:connector-curvature="0"
     style="opacity:0.5" />
  <path
     d="M 6.35,2.53 A 2.76,2.76 0 0 1 9.11,5.29 2.76,2.76 0 0 1 6.35,8.05 2.76,2.76 0 0 1 3.59,5.3 2.76,2.76 0 0 1 6.35,2.54 Z"
     id="path75"
     inkscape:connector-curvature="0"
     style="fill:#c83737" />
  <path
     d="m 9.11,5.31 a 2.76,2.76 0 0 0 0,-0.02 2.76,2.76 0 0 0 0,-0.2 A 2.76,2.76 0 0 0 9.07,4.82 2.76,2.76 0 0 0 9.01,4.55 2.76,2.76 0 0 0 8.92,4.29 2.76,2.76 0 0 0 8.82,4.04 2.76,2.76 0 0 0 8.67,3.8 2.76,2.76 0 0 0 8.51,3.58 2.76,2.76 0 0 0 8.33,3.37 2.76,2.76 0 0 0 8.13,3.18 2.76,2.76 0 0 0 7.91,3.01 2.76,2.76 0 0 0 7.67,2.87 2.76,2.76 0 0 0 7.43,2.75 2.76,2.76 0 0 0 7.17,2.65 2.76,2.76 0 0 0 6.92,2.59 c 0,0.02 -0.03,0.04 -0.02,0.06 a 1.7,1.77 0 0 0 -0.39,1.1 1.7,1.77 0 0 0 0,0.1 C 6.49,3.89 6.35,4.08 6.31,4.2 L 4.11,6.9 A 2.76,2.76 0 0 0 4.19,7 2.76,2.76 0 0 0 4.37,7.22 2.76,2.76 0 0 0 4.57,7.4 2.76,2.76 0 0 0 4.79,7.57 2.76,2.76 0 0 0 5.03,7.71 2.76,2.76 0 0 0 5.27,7.83 2.76,2.76 0 0 0 5.53,7.93 2.76,2.76 0 0 0 5.65,7.96 L 8,5.76 C 8.15,5.72 8.43,5.55 8.43,5.55 L 8.42,5.54 A 1.77,1.73 89.33 0 0 9.1,5.31 Z"
     id="path77"
     inkscape:connector-curvature="0"
     style="opacity:0.25;fill:#280b0b;fill-rule:evenodd" />
  <path
     d="M 6.47,4.15 3.32,8.03 C 3.48,8.95 4.39,8.99 4.39,8.99 L 8.07,5.58 Z"
     id="path79"
     style="fill:url(#m);fill-rule:evenodd"
     inkscape:connector-curvature="0" />
  <path
     d="M 6.77,4.76 A 70.05,70.05 0 0 1 3.54,8.44 c 0,0 -0.19,-0.19 -0.2,-0.4 L 6.39,4.29 c 0,0 0.1,0.22 0.38,0.47 z"
     id="path81"
     style="opacity:0.23999999;fill:url(#n);fill-rule:evenodd"
     inkscape:connector-curvature="0" />
  <path
     d="M 9.87,3.8 A 1.6503393,1.600329 89.33 1 1 6.67,3.73 1.6502444,1.600237 89.33 1 1 9.87,3.79 Z"
     id="path83"
     style="fill:url(#o)"
     inkscape:connector-curvature="0" />
  <path
     d="M 9.8,3.79 A 1.58,1.64 0 1 1 6.65,3.73 1.58,1.64 0 1 1 9.8,3.79 Z"
     id="path85"
     style="opacity:0.18999999;fill:url(#p)"
     inkscape:connector-curvature="0" />
  <path
     d="m 7.24,2.46 c 0,0 0.64,0.88 2.37,2.21 0.07,0.06 -0.13,0.28 -0.2,0.22 0,0 -1.08,-0.54 -2.39,-2.17 C 6.95,2.64 7.07,2.58 7.24,2.46 Z"
     id="path87"
     style="fill:url(#q);fill-rule:evenodd"
     inkscape:connector-curvature="0" />
  <path
     d="m 7.24,2.46 c 0,0 0.64,0.88 2.37,2.21 0.07,0.06 -0.13,0.28 -0.2,0.22 0,0 -1.08,-0.54 -2.39,-2.17 C 6.95,2.64 7.07,2.58 7.24,2.46 Z"
     id="path89"
     style="opacity:0.67000002;fill:url(#r);fill-rule:evenodd"
     inkscape:connector-curvature="0" />
  <path
     d="M 8.01,5.61 C 8.14,5.6 8.44,5.41 8.44,5.41 8.01,5.18 6.67,3.81 6.67,3.81 c 0,0 -0.23,0.3 -0.2,0.4 0,0 0.76,0.93 1.54,1.4 z"
     id="path91"
     style="fill:url(#s);fill-rule:evenodd"
     inkscape:connector-curvature="0" />
</svg>
